X: 1757
T:An Suisin Ban
T:White Blanket, The
S:irtrad-l, L. LaVerne, 11/97
D:Michael Tubridy on the CD accompanying Breandan Breathnach's book
D:Folk Music and Dances of Ireland; Gearid OhAllmhurin's CD
D:"Traditional Music From Clare and Beyond".
N:Names, info etc from the encyclopedic Philippe Varlet.
M:4/4
L:1/8
S:David Kidd
R:Set Dance
P:AABB
Z:Lorna LaVerne
K:A
(3ABc |
dFFE FGAF | EF (3ABc d3B |
cBAF E2FA | B2Bc B2AB |
cBAF ECEF | A2AB A2(3ABc |
dFFE FGAF | EF (3ABc d3B |
cBAF E2FA | B2Bc B2AB |
cBAF ECEF | A2AB AAce |
f2fe fgaf | ec(3ABc d3B |
cBAF E2FA | B2Bc B2AB |
cBAF ECEF | A2AB AAce |
f2fe fgaf | ec(3ABc d3B |
cBAF E2FA | B2Bc B2AB |
cBAF ECEF | A2AB A2 |
